X: 20182
T: GIPSY QUADRILLES No 2.--l'Et\`e
N: The accent in the title is wrong; not fixed.
%R: march, reel
B: W. Hamilton "Universal Tune-Book" Vol. 2 Glasgow 1846 p.18 #2
S: http://s3-eu-west-1.amazonaws.com/itma.dl.printmaterial/book_pdfs/hamiltonvol2web.pdf
Z: 2016 John Chambers <jc:trillian.mit.edu>
N: Added missing rest as "pickup" to 3rd strain.
N: The original does have the f natural at the end of strain 1 and as the key signature of strain 2.
M: 2/4
L: 1/16
K: G
% - - - - - - - - - - - - - - - - - - - - - - - - -
|:\
.g2.d2.B2.G2 | (FG).A.B c2e2 | A2c2 F2e2 | (dc).B.A ("_>"_B2=B2) |\
.g2.d2.B2.G2 | (FG).A.B c2e2 | d2c'2 a2f2 | g4 "^Fin."G4 H:| [K:=f] %[K:C]
"_>"c4 d2cd | (e2g2c'2)b2 | a2f2 d2ef | g2e2c2G2 |\
c4 d2cd | e2g2c'2b2 | a2f2d2B2 | c4 cde"^D.C."^f |]
% - - - - - - - - - - - - - - - - - - - - - - - - -

%%sep 1 1 500
%%sep 1 1 500

